docs/img/icons/phone.svg

<svg width="50" height="50" viewBox="0 0 50 50" fill="none" xmlns="http://www.w3.org/2000/svg">
<g clip-path="url(#clip0_45:712)">
<path d="M48.7149 36.8783L42.4991 30.6625C40.7854 28.949 37.997 28.949 36.2834 30.6625L33.4581 33.4878C32.1598 34.7861 30.0473 34.7857 28.7496 33.4883L16.5035 21.2318C15.2022 19.9305 15.202 17.8243 16.5035 16.5229C16.9585 16.0678 18.2653 14.7611 19.3288 13.6976C21.0349 11.9915 21.0587 9.21173 19.3271 7.48028L13.113 1.28574C11.3994 -0.427832 8.61097 -0.427832 6.90189 1.28125C5.62298 2.54903 5.21048 2.95801 4.63704 3.52647C-1.54266 9.70607 -1.54266 19.7611 4.63674 25.9405L24.0403 45.3541C30.2344 51.5484 40.2599 51.5489 46.4545 45.3541L48.7149 43.0939C50.4285 41.3802 50.4285 38.5919 48.7149 36.8783ZM8.96927 3.35762C9.54046 2.78643 10.4698 2.78633 11.0428 3.35918L17.2569 9.55372C17.8294 10.1263 17.8294 11.0529 17.2569 11.6256L16.2208 12.6615L7.93861 4.3793L8.96927 3.35762ZM26.1126 43.2826L6.70892 23.8687C1.92785 19.0876 1.66506 11.5803 5.90071 6.48526L14.1589 14.7435C11.989 17.2033 12.0794 20.9517 14.4311 23.3033L26.6768 35.5593C26.6769 35.5594 26.6771 35.5596 26.6772 35.5597C29.0263 37.9089 32.7745 38.0052 35.2374 35.8324L43.4958 44.0908C38.417 48.3191 30.9265 48.0965 26.1126 43.2826ZM46.6431 41.022L45.607 42.0581L37.3194 33.7704L38.3553 32.7344C38.9266 32.1632 39.8559 32.1631 40.4272 32.7344L46.643 38.9501C47.2143 39.5214 47.2143 40.4509 46.6431 41.022Z" fill="white"/>
</g>
<defs>
<clipPath id="clip0_45:712">
<rect width="50" height="50" fill="white"/>
</clipPath>
</defs>
</svg>

<svg width="50" height="50" fill="none" xmlns="http://www.w3.org/2000/svg"><g clip-path="url(#clip0_45:712)"><path d="M48.715 36.878l-6.216-6.215a4.4 4.4 0 00-6.216 0l-2.825 2.825a3.334 3.334 0 01-4.708 0L16.503 21.232a3.328 3.328 0 010-4.71c.456-.454 1.762-1.76 2.826-2.824a4.393 4.393 0 00-.002-6.218l-6.214-6.194a4.399 4.399 0 00-6.211-.005L4.637 3.526c-6.18 6.18-6.18 16.235 0 22.415L24.04 45.353c6.194 6.194 16.22 6.195 22.415 0l2.26-2.26a4.4 4.4 0 000-6.216zM8.969 3.358a1.467 1.467 0 012.074.001l6.214 6.195a1.465 1.465 0 010 2.072l-1.036 1.036-8.282-8.283 1.03-1.021zm17.144 39.925L6.709 23.869A12.88 12.88 0 015.9 6.485l8.258 8.258a6.254 6.254 0 00.272 8.56L26.677 35.56a6.254 6.254 0 008.56.273l8.259 8.259a12.856 12.856 0 01-17.383-.808zm20.53-2.261l-1.036 1.036-8.288-8.288 1.036-1.036a1.467 1.467 0 012.072 0l6.216 6.216c.571.571.571 1.5 0 2.072z" fill="#fff"/></g><defs><clipPath id="clip0_45:712"><path fill="#fff" d="M0 0h50v50H0z"/></clipPath></defs></svg>
